icon-themes/colibre_svg/cmd/lc_break.svg

<svg viewBox="0 0 24 24" xmlns="http://www.w3.org/2000/svg"><g fill="none" stroke="#1e8bcd" stroke-linecap="round" stroke-linejoin="round"><path d="m18.50709 2.5000805-16.00709 4.4653947 8.737069 14.1404168.262772.394005h10.000159l-2.598752-4.202724-2.199708-4.990735-.218977-.437784.131387-.525341z" stroke-width="1.000184"/><path d="m9.5 14.5 5-5.9999996"/></g></svg>

<?xml-stylesheet type="text/css" href="icons.css" ?>
<svg viewBox="0 0 24 24" xmlns="http://www.w3.org/2000/svg">
  <path
	 class="icn icn--highlight-color-line"
     d="M 18.50709,2.5000805 2.5,6.9654752 11.237069,21.105892 11.499841,21.499897 H 21.5 L 18.901248,17.297173 16.70154,12.306438 16.482563,11.868654 16.61395,11.343313 Z"
	 fill="none"
	 stroke="#1e8bcd"
	 stroke-linecap="round"
	 stroke-linejoin="round"
     />
  <path
	 class="icn icn--highlight-color-line"
     d="m 9.5,14.5 5,-6"
	 fill="none"
	 stroke="#1e8bcd"
	 stroke-linecap="round"
	 stroke-linejoin="round"
     />
</svg>
